web/packages/design/src/ResourceIcon/assets/checkr.svg

<svg width="72" height="72" viewBox="0 0 72 72" fill="none" xmlns="http://www.w3.org/2000/svg">
<path d="M0 8.00049C0 3.58221 3.58172 0.000488281 8 0.000488281H64C68.4183 0.000488281 72 3.58221 72 8.00049V64.0005C72 68.4188 68.4183 72.0005 64 72.0005H8C3.58172 72.0005 0 68.4188 0 64.0005V8.00049Z" fill="#009BB5"/>
<path d="M37.1476 47.9581C30.8292 47.9581 25.9872 42.7027 25.9872 35.9709C25.9872 29.2393 30.7702 24.1019 37.1476 24.1019C41.5763 24.1019 45.5327 26.4048 47.4813 30.5973L58.2285 26.8771C54.8626 18.374 46.9498 13.0005 37.2657 13.0005C23.9795 13.0005 14 22.8028 14 35.8527C14 48.9027 24.0385 59.0005 37.0886 59.0005C46.9498 59.0005 55.0987 53.3908 58.3464 44.5922L47.4222 40.8129C45.7688 45.2416 41.6944 47.9581 37.1476 47.9581Z" fill="white"/>
</svg>

<svg xmlns="http://www.w3.org/2000/svg" width="72" height="72" fill="none" viewBox="0 0 72 72"><path fill="#009bb5" d="M0 8a8 8 0 0 1 8-8h56a8 8 0 0 1 8 8v56a8 8 0 0 1-8 8H8a8 8 0 0 1-8-8z"/><path fill="#fff" d="M37.148 47.958c-6.319 0-11.16-5.255-11.16-11.987S30.77 24.1 37.147 24.1c4.428 0 8.385 2.304 10.333 6.496l10.747-3.72C54.862 18.373 46.949 13 37.265 13 23.98 13 14 22.803 14 35.853S24.039 59 37.089 59c9.86 0 18.01-5.61 21.257-14.409l-10.924-3.78c-1.653 4.43-5.728 7.146-10.274 7.146"/></svg>
